X:1
T:Title
%%score ( 1 2 ) ( 3 4 )
L:1/8
Q:1/4=95
M:4/4
K:D
V:1 treble nm="Grand Piano, Soprano"
V:2 treble 
V:3 bass nm="Choir Pad, Suffer the Children"
V:4 bass 
V:1
 [FA]2 [DF]>[EG] [FA]2 D>[DE] | [DF]2 [GB]>[FA] [FA]>[EG] [CE]2 | [EG]2 [CE]>[DF] [EG]2 [CE]>[DF] | %3
w: By~George~Frederick~Root * * * * *|||
 [EG][GB][FA][EG] [DF]4 | [FA]2 [DF]>[EG] [FA]2 D>[DE] | [DF]2 [GB]>[FA] [FA]>[EG] [CE]2 | %6
w: |||
 [EG]2 [CE]>[DF] [EG]2 [CE]>[DF] | [EG][GB][FA][EG] [DF]4 | [Fd]2 [Ac]>[GB] [GB]2 [FA]2 | %9
w: |||
 [Fd]2 [Ac]>[GB] [GB]2 [FA]2 | AB[Fc][Fd] [DF]2 [CF]>E | D8 |] %12
w: |||
V:2
 x8 | x8 | x8 | x8 | x8 | x8 | x8 | x8 | x8 | x8 | F2 z2 z4 | x8 |] %12
V:3
 [D,A,]2 [D,A,]>[D,A,] [D,A,]2 [D,F,]>[D,G,] | [D,A,]2 [D,D]>[D,A,] [A,,A,]2 [A,,A,]2 | %2
 [A,,A,]2 [A,,A,]>[A,,A,] [A,,A,]2 [A,,A,]>[A,,A,] | [A,,A,]2 [A,,A,]2 [D,A,]4 | %4
 [D,A,]2 [D,A,]>[D,A,] [D,A,]2 [D,F,]>[D,G,] | [D,A,]2 [D,D]>[D,A,] [A,,A,]2 [A,,A,]2 | %6
 [A,,A,]2 [A,,A,]>[A,,A,] [A,,A,]2 [A,,A,]>[A,,A,] | [A,,A,]2 [A,,A,]2 [D,A,]4 | %8
 A,D [D,D]>[D,D] [D,D]4 | A,D [D,D]>[D,D] [D,D]4 | [D,D]2 [D,A,][F,A,] A,2 [A,,A,]>G, | [D,F,]8 |] %12
V:4
 x8 | x8 | x8 | x8 | x8 | x8 | x8 | x8 | D,2 z2 z4 | D,2 z2 z4 | x8 | x8 |] %12

